dist/svg/speaker-fill.svg

<svg xmlns="http://www.w3.org/2000/svg" viewBox="0 0 24 24"><path d="M3.82 3.276a.73.73 0 0 0-.538.515c-.06.216-.057 13.212.003 13.428.092.332.488.58.834.521.091-.015.351-.158.665-.366a20.3 20.3 0 0 1 6.776-2.831c.405-.087 1.494-.262 1.63-.263.039 0 .05.561.051 2.67.001 2.514.005 2.679.075 2.83.135.293.382.46.677.46.083 0 .854-.235 1.764-.539 1.741-.581 1.784-.601 1.923-.921.038-.088.292-1.279.563-2.646l.495-2.486.201-.099c.601-.296 1.242-.974 1.524-1.613.2-.451.272-.8.274-1.336.004-.639-.092-1.043-.383-1.617-.338-.667-1.05-1.319-1.767-1.617-.468-.196-.748-.237-2.747-.406a220 220 0 0 1-2.48-.222c-2.229-.235-4.22-.823-6.427-1.897A17 17 0 0 1 4.8 3.639c-.558-.363-.727-.426-.98-.363m12.44 5.226c.682.056 1.343.128 1.469.159.356.088.627.247.915.535.403.403.595.843.595 1.364 0 .608-.271 1.138-.771 1.506-.379.278-.579.32-2.062.433-.718.055-1.383.11-1.476.123l-.17.023v-4.28l.13.018c.072.009.688.063 1.37.119m.858 5.528c-.001.039-.176.933-.39 1.987l-.388 1.917-.759.253a19 19 0 0 1-.79.253c-.017 0-.031-.969-.031-2.154v-2.153l.95-.07c.523-.039.968-.076.99-.083s.125-.015.23-.017c.156-.002.19.009.188.067"/></svg>

<svg fill="none" xmlns="http://www.w3.org/2000/svg" viewBox="0 0 24 24"><path d="M3.820 3.276 C 3.554 3.342,3.353 3.534,3.282 3.791 C 3.222 4.007,3.225 17.003,3.285 17.219 C 3.377 17.551,3.773 17.799,4.119 17.740 C 4.210 17.725,4.470 17.582,4.784 17.374 C 6.776 16.059,9.197 15.047,11.560 14.543 C 11.965 14.456,13.054 14.281,13.190 14.280 C 13.229 14.280,13.240 14.841,13.241 16.950 C 13.242 19.464,13.246 19.629,13.316 19.780 C 13.451 20.073,13.698 20.240,13.993 20.240 C 14.076 20.240,14.847 20.005,15.757 19.701 C 17.498 19.120,17.541 19.100,17.680 18.780 C 17.718 18.692,17.972 17.501,18.243 16.134 L 18.738 13.648 18.939 13.549 C 19.540 13.253,20.181 12.575,20.463 11.936 C 20.663 11.485,20.735 11.136,20.737 10.600 C 20.741 9.961,20.645 9.557,20.354 8.983 C 20.016 8.316,19.304 7.664,18.587 7.366 C 18.119 7.170,17.839 7.129,15.840 6.960 C 14.795 6.871,13.679 6.771,13.360 6.738 C 11.131 6.503,9.140 5.915,6.933 4.841 C 6.038 4.405,5.601 4.159,4.800 3.639 C 4.242 3.276,4.073 3.213,3.820 3.276 M16.260 8.502 C 16.942 8.558,17.603 8.630,17.729 8.661 C 18.085 8.749,18.356 8.908,18.644 9.196 C 19.047 9.599,19.239 10.039,19.239 10.560 C 19.239 11.168,18.968 11.698,18.468 12.066 C 18.089 12.344,17.889 12.386,16.406 12.499 C 15.688 12.554,15.023 12.609,14.930 12.622 L 14.760 12.645 14.760 10.505 L 14.760 8.365 14.890 8.383 C 14.962 8.392,15.578 8.446,16.260 8.502 M17.118 14.030 C 17.117 14.069,16.942 14.963,16.728 16.017 L 16.340 17.934 15.581 18.187 C 15.163 18.326,14.808 18.440,14.791 18.440 C 14.774 18.440,14.760 17.471,14.760 16.286 L 14.760 14.133 15.710 14.063 C 16.233 14.024,16.678 13.987,16.700 13.980 C 16.722 13.972,16.825 13.965,16.930 13.963 C 17.086 13.961,17.120 13.972,17.118 14.030 " stroke="none" fill-rule="evenodd"/></svg>
